X: 2
T: Fly Fishing, The
C: Jackie Daly
Z: Fernando Durbán Galnares
S: https://thesession.org/tunes/313#setting41298
R: reel
M: 4/4
L: 1/8
K: Dmaj
|:"D"dcAF "G"G2 FG|"D"ADDE FG AF|"G"GAFA G2 FG|"D"Addf "A"e2 fe|
"D"dcAF "G"G2 FG|"D"ADDE FG AF|"G"GAFA G2 FG|"A"Ad-dc "D"d2 de:|
|:"D"f2 af dfaf|"D7"=cfaf "G"B2 BA|"Em7"GABd gdBd|"A7"ceab agfe|
"D"f2 af dfaf|"D7"=cfaf "G"B2 BA|"Em7"GABd gdBd|"A"cedc "D"d2 de:|

%-------------------- TUNE SEPARATOR --------------------%

